X: 35288
T: Rose Of Fylde, The
R: strathspey
M: 4/4
K: Edorian
|:FE|D3 E F3 A|B>AB<d E2 FE|D2 DE F3 A|B>de<f e2 dA|
B>cd<B G2 G<B|A<dFD E2 FA|B2 Bc BAFA|B2 E2 E2:|
|:FA|B2 BA E3 F|A>FA<B A2 FE|D2 de f2 d2|B>AB<d e2 dc|B>cd<B G2 AB|
[1 A<dfg e2 dc|BAdA BAF<A|B2 E2 E2:|
[2 A<dFD E2 FA|B2 Bc BAFA|B2 E2 E2||

